X: 1
T: Prince Charlie   [Em]
T: Prionns Tearlach
R: reel
D: Natalie MacMaster, LIVE, 2002
O: 18th C Scotland
B: A Collection of Dances to Celebrate the Diamond Jubilee of HM Elizabeth II.
B: Original setting in Simon Fraser Collection
B: Athole Collection
Z: Paul Stewart Cranford (P.S.C.), <http://www.cranfordpub.com>
F: http://cranfordpub.com/tunes/abcs/natalie.abc
L: 1/8
M: C|
K: Edor
F | "Em"E2EF B2Bc | "D"d2AG FDDF | "Em"E2EF B2Bc | "D"d2AF  "Em"GEE ||
F | "Em"E2EF B2Bc | "D"d2AG FDDF | "Em"EFGA B2Ba |"B7"gef^d "Em"e/e/e e |]
B | "Em"eBef geBg | "D"fbag fddf | "Em"eBef    geBg |"Bm"bgaf "Em"e/e/e e ||
B | "Em"eBef geBg | "D"fdAG FEDf | "Em"geBg "D"Af"Em"Ge | "B(m)"FdAF "Em"E/E/E E |]
